svgs/sharp-light/circle-chevron-right.svg

<svg xmlns="http://www.w3.org/2000/svg" viewBox="0 0 512 512"><!--! Font Awesome Pro 7.1.0 by @fontawesome - https://fontawesome.com License - https://fontawesome.com/license (Commercial License) Copyright 2025 Fonticons, Inc. --><path fill="currentColor" d="M480 256a224 224 0 1 1 -448 0 224 224 0 1 1 448 0zM0 256a256 256 0 1 0 512 0 256 256 0 1 0 -512 0zm347.3 11.3l11.3-11.3-11.3-11.3-112-112-11.3-11.3-22.6 22.6 11.3 11.3 100.7 100.7-100.7 100.7-11.3 11.3 22.6 22.6 11.3-11.3 112-112z"/></svg>

<svg xmlns="http://www.w3.org/2000/svg" viewBox="0 0 512 512"><!--! Font Awesome Pro 6.7.2 by @fontawesome - https://fontawesome.com License - https://fontawesome.com/license (Commercial License) Copyright 2024 Fonticons, Inc. --><path d="M480 256A224 224 0 1 1 32 256a224 224 0 1 1 448 0zM0 256a256 256 0 1 0 512 0A256 256 0 1 0 0 256zm347.3 11.3L358.6 256l-11.3-11.3-112-112L224 121.4 201.4 144l11.3 11.3L313.4 256 212.7 356.7 201.4 368 224 390.6l11.3-11.3 112-112z"/></svg>
